X: 1134
T: Me Mother's
C: Robert Whinham
M: 6/8
L: 1/8
R: jig
K: G Major
|: B |
d2 G F2 A | G2 B AcA | BdB c2 e | d2 g faf | 
g2 G F2 A | G2 B AcA | B2 d c2 e | def g2 :|
|: d |
g2 b f2 a | efg d2 B | c2 e B2 d | ABA B2 d |
g2 b f2 a | ege dcB | c2 e d2 B | G2 g g2 :|
|: B |
d2 g e2 g | d2 g e3 | d2 d B2 G | A2 G FED |
d2 g e2 g | d2 g e3 | d2 d dba | g2 f g2 :|
